Papirus/16x16/mimetypes/application-x-trash.svg

<svg xmlns="http://www.w3.org/2000/svg" width="16" height="16" version="1.1">
 <path fill="#e4e4e4" d="m2.75 1c-0.4172 0-0.75 0.3328-0.75 0.75v13.5c0 0.417 0.3328 0.75 0.75 0.75h10.5c0.418 0 0.75-0.332 0.75-0.75v-9.25l-4.125-0.875-0.875-4.125z"/>
 <path fill="#fafafa" d="m9 1v4.1667c0 0.4584 0.3749 0.8333 0.8333 0.8333h4.1667z"/>
 <path style="opacity:0.5" d="M 7.5 7 C 7.0165 7 7 7.6367188 7 7.6367188 L 5.484375 7.6367188 C 5.484375 7.6367188 5 7.5325531 5 8.0644531 L 5 9 L 6 9 L 10 9 L 11 9 L 11 8.0644531 C 11 7.5325531 10.511625 7.6367188 10.515625 7.6367188 L 9 7.6367188 C 9 7.6367188 8.98356 7 8.5 7 L 7.5 7 z M 6 10 L 6 13.482422 C 6 13.751422 5.9377188 14 6.1992188 14 L 9.8007812 14 C 10.062251 14 9.96027 13.748022 10 13.482422 L 10 10 L 6 10 z"/>
</svg>

<svg xmlns="http://www.w3.org/2000/svg" width="16" height="16" version="1.1" viewBox="0 0 16 16">
 <path fill="#e4e4e4" d="m2.75 1c-0.4172 0-0.75 0.3328-0.75 0.75v13.5c0 0.417 0.3328 0.75 0.75 0.75h10.5c0.418 0 0.75-0.332 0.75-0.75v-9.25l-4.125-0.875-0.875-4.125z"/>
 <path fill="#fafafa" d="m9 1v4.1667c0 0.4584 0.3749 0.8333 0.8333 0.8333h4.1667z"/>
 <path opacity=".5" d="m7.5 7c-0.4835 0-0.5 0.6364-0.5 0.6364h-1.5165s-0.4835-0.1044-0.4835 0.4275v0.9361h6v-0.936c0-0.5319-0.488-0.4276-0.484-0.4276h-1.5165s-0.01644-0.63639-0.5-0.63639zm-1.5 2.0001v4.4829c0 0.269-0.0615 0.517 0.2 0.517h3.6c0.26147 0 0.16027-0.25115 0.2-0.51675v-4.4834z"/>
</svg>
